X:1
T:Title
%%score ( 1 2 ) 3
L:1/8
Q:1/4=100
M:3/4
K:G
V:1 treble nm="Grand Piano, Staff 1"
V:2 treble 
V:3 bass nm="Choir Pad, Azmon, CM"
V:1
 D2 [DG][B,G] [DA]2 | [DA]2 [DB][CA] [B,G]2 | [DA]2 [DB][DB] [Dc]2 | [DB]2 [DA]4 | %4
w: By~Carl~Gotthelf~Gl�ser,~arranged~by~Lowell~Mason * * *||||
 [Fd]2 [Gd][DB] [DB]2 | [DG]2 [EG][CE] [CE]2 | .G2 z2 z2 | [CA]2 [B,G]4- | [B,G]4 z2 |] %9
w: |||||
V:2
 x6 | x6 | x6 | x6 | x6 | x6 | E-[CE] [B,D][B,G] [B,G]2 | x6 | x6 |] %9
V:3
 D,2 [B,,D,][G,,G,] [D,F,]2 | [D,F,]2 G,[D,F,] [E,G,]2 | [D,F,]2 G,G, [F,A,]2 | G,2 [D,F,]4 | %4
 [D,A,]2 [G,B,]G, G,2 | [B,,G,]2 [C,G,][C,G,] [C,G,]2 | [C,G,]2 [D,G,][D,G,] [D,G,]2 | %7
 [D,F,]2 [G,,G,]4- | [G,,G,]4 z2 |] %9

